X: 4060
T: Blessing's Black Cow
R: reel
M: 4/4
K: Eminor
GA|BE~E2 GEDE|GEDE ~G3A|BE~E2 GEDG|1 BddB ABGA:|2 BddB AcBA||
G2FA GBdB|GBdB AGEF|~G3F GBdB|EBdB AGEF|
G2DE GBdB|GBdB AGED|~G3F GBdB|EBdB ~A3c||

